X: 3451
T: Betty Anne's
R: jig
M: 6/8
K: Gmajor
|:"G"dba gdB|"C"cag fdB|"D"cBc ABc|"D7"edc B2 c|
"G"dba gdB|"C"cag fdB|"D"cBc ABc|1 "D7"BFA "G"GBc:|2 "D7"BFA "G"GDB,||
|:"G"G,B,D GBd|"C"cAG F2 E|"D"DFA ~d3|"D7"DFA ~c3|
"G"G,B,D GBd|"C"cAG F2 E|"D"DFA ABc|1 "D7"BFA "G"GDB,:|2 "D7"BFA "G"GBc||

